X:1
T:Ebb Tide -- Hornpipe
R:hornpipe
B:Cole's 1000 Fiddle Tunes
M:2/4
L:1/16
K:C
uG2|c2(c"4"e) gage|gage gage|fafd egec|defd cBAG|
c2(ce) gage|gage gage|fafd egec|BdGB c2:|
(uef)|gece geag|fafd B2(de)|fdBG DGBd|"4"ecGE C2(ef)|
gece g"4"c'eg|agfe d2(de)|fagf edcB|[c2E2][c2E2][c2E2]:|
